file/lowe’s.svg

<svg clip-rule="evenodd" fill-rule="evenodd" stroke-linejoin="round" stroke-miterlimit="1.41421" viewBox="0 0 560 400" xmlns="http://www.w3.org/2000/svg"><path d="m358.2 151.6h-1.1v-1.9h1.3c.6 0 1.4.1 1.4.9-.1 1-.8 1-1.6 1zm4.4.4c0 2.6-1.9 4.5-4.3 4.5-2.5 0-4.4-1.9-4.4-4.5 0-2.5 1.9-4.5 4.4-4.5 2.4.1 4.3 2 4.3 4.5zm-1.7 3.1-1.8-2.7c.9-.1 1.6-.6 1.6-1.7 0-1.2-.7-1.8-2.2-1.8h-2.4v6.2h.9v-2.7h1.1l1.6 2.7zm-240.2 44.5h15.5v-34.8h-15.5zm272.2-78.1v117h-385.8v-117h31.1v-17.4h62.2l99.6-42.7 99.6 42.7h62.1v17.4zm-297 78.2h-27.3v-64.5h-17.6v79.8h44.9zm58-41.9c0-4.6-3.8-8.4-8.4-8.4h-34.1c-4.6 0-8.4 3.8-8.4 8.4v48.9c0 4.6 3.8 8.4 8.4 8.4h34.1c4.6 0 8.4-3.8 8.4-8.4zm82.2-8.4h-17.7v50.4h-10.6v-50.4h-15.5v50.4h-10.6v-50.4h-17.7v57.3c0 4.6 3.8 8.4 8.4 8.4h20.9c3.5 0 6.8-2.4 6.8-6 0 3.5 3.3 6 6.8 6h20.9c4.6 0 8.4-3.8 8.4-8.4v-57.3zm52 0h-42v65.7h42v-15.4h-24.3v-10h24.3v-14.8h-24.3v-10.1h24.3zm3.9 4.8h12.2l2.6-18.9h-14.8zm59.9 44.2c.1-2.7-.5-5.4-1.8-8.2l-.1-.2c-.1-.1-.1-.3-.2-.4l-.1-.2c-2.8-5.6-9.1-10.3-19.1-14.3l-.4-.1c-2-.8-8.1-3.2-8.7-7-.2-1.1.3-2.8 1.5-3.8 1.3-1.3 3.2-2 5.8-2 4.1 0 8.8 1.7 11.2 2.7 5.1 2.1 9.6 4 9.6 4l.4.2v-14.3l-.1-.1c-.1-.1-9.7-6.1-19.5-7.5-1.1-.1-2.2-.1-3.3-.1-9 0-15.7 3.3-20.2 9.7-3.7 5.3-4.1 13.6-1 19.9 4.1 7 10.6 10 16.9 12.8 2.6 1.2 5.3 2.4 7.8 3.9 2.8 1.7 4.3 4.3 3.7 6.6-.6 2.4-3.4 4-6.8 4-.5 0-1 0-1.4-.1h-.2c-6.7-.9-20.2-6-20.4-6l-.4-.2v15.7l.2.1c.1 0 13.2 4.4 24.9 4.4 6.4 0 11.2-1.3 14.3-3.8-.1-.2 7.1-5.9 7.4-15.7zm11.8-46.4c0-3.1-2.5-5.4-5.4-5.4-3 0-5.5 2.3-5.5 5.4s2.5 5.4 5.5 5.4c2.9 0 5.4-2.3 5.4-5.4z" fill="#004990" fill-rule="nonzero" transform="matrix(.933126 0 0 .933126 93.3748 60.0778)"/></svg>

<?xml version="1.0" encoding="UTF-8" standalone="no"?>
<!DOCTYPE svg PUBLIC "-//W3C//DTD SVG 1.1//EN" "http://www.w3.org/Graphics/SVG/1.1/DTD/svg11.dtd">
<svg width="100%" height="100%" viewBox="0 0 560 400" version="1.1" xmlns="http://www.w3.org/2000/svg" xmlns:xlink="http://www.w3.org/1999/xlink" xml:space="preserve" xmlns:serif="http://www.serif.com/" style="fill-rule:evenodd;clip-rule:evenodd;stroke-linejoin:round;stroke-miterlimit:1.41421;">
    <g transform="matrix(0.933126,0,0,0.933126,93.3748,60.0778)">
        <path d="M358.2,151.6L357.1,151.6L357.1,149.7L358.4,149.7C359,149.7 359.8,149.8 359.8,150.6C359.7,151.6 359,151.6 358.2,151.6ZM362.6,152C362.6,154.6 360.7,156.5 358.3,156.5C355.8,156.5 353.9,154.6 353.9,152C353.9,149.5 355.8,147.5 358.3,147.5C360.7,147.6 362.6,149.5 362.6,152ZM360.9,155.1L359.1,152.4C360,152.3 360.7,151.8 360.7,150.7C360.7,149.5 360,148.9 358.5,148.9L356.1,148.9L356.1,155.1L357,155.1L357,152.4L358.1,152.4L359.7,155.1L360.9,155.1ZM120.7,199.6L136.2,199.6L136.2,164.8L120.7,164.8L120.7,199.6ZM392.9,121.5L392.9,238.5L7.1,238.5L7.1,121.5L38.2,121.5L38.2,104.1L100.4,104.1L200,61.4L299.6,104.1L361.7,104.1L361.7,121.5L392.9,121.5ZM95.9,199.7L68.6,199.7L68.6,135.2L51,135.2L51,215L95.9,215L95.9,199.7ZM153.9,157.8C153.9,153.2 150.1,149.4 145.5,149.4L111.4,149.4C106.8,149.4 103,153.2 103,157.8L103,206.7C103,211.3 106.8,215.1 111.4,215.1L145.5,215.1C150.1,215.1 153.9,211.3 153.9,206.7L153.9,157.8ZM236.1,149.4L218.4,149.4L218.4,199.8L207.8,199.8L207.8,149.4L192.3,149.4L192.3,199.8L181.7,199.8L181.7,149.4L164,149.4L164,206.7C164,211.3 167.8,215.1 172.4,215.1L193.3,215.1C196.8,215.1 200.1,212.7 200.1,209.1C200.1,212.6 203.4,215.1 206.9,215.1L227.8,215.1C232.4,215.1 236.2,211.3 236.2,206.7L236.2,149.4L236.1,149.4ZM288.1,149.4L246.1,149.4L246.1,215.1L288.1,215.1L288.1,199.7L263.8,199.7L263.8,189.7L288.1,189.7L288.1,174.9L263.8,174.9L263.8,164.8L288.1,164.8L288.1,149.4ZM292,154.2L304.2,154.2L306.8,135.3L292,135.3L292,154.2ZM351.9,198.4C352,195.7 351.4,193 350.1,190.2L350,190C349.9,189.9 349.9,189.7 349.8,189.6L349.7,189.4C346.9,183.8 340.6,179.1 330.6,175.1L330.2,175C328.2,174.2 322.1,171.8 321.5,168C321.3,166.9 321.8,165.2 323,164.2C324.3,162.9 326.2,162.2 328.8,162.2C332.9,162.2 337.6,163.9 340,164.9C345.1,167 349.6,168.9 349.6,168.9L350,169.1L350,154.8L349.9,154.7C349.8,154.6 340.2,148.6 330.4,147.2C329.3,147.1 328.2,147.1 327.1,147.1C318.1,147.1 311.4,150.4 306.9,156.8C303.2,162.1 302.8,170.4 305.9,176.7C310,183.7 316.5,186.7 322.8,189.5C325.4,190.7 328.1,191.9 330.6,193.4C333.4,195.1 334.9,197.7 334.3,200C333.7,202.4 330.9,204 327.5,204C327,204 326.5,204 326.1,203.9L325.9,203.9C319.2,203 305.7,197.9 305.5,197.9L305.1,197.7L305.1,213.4L305.3,213.5C305.4,213.5 318.5,217.9 330.2,217.9C336.6,217.9 341.4,216.6 344.5,214.1C344.4,213.9 351.6,208.2 351.9,198.4ZM363.7,152C363.7,148.9 361.2,146.6 358.3,146.6C355.3,146.6 352.8,148.9 352.8,152C352.8,155.1 355.3,157.4 358.3,157.4C361.2,157.4 363.7,155.1 363.7,152Z" style="fill:rgb(0,73,144);fill-rule:nonzero;"/>
    </g>
</svg>
